lib/brands/icons/bitcoin.svg

<svg xmlns="http://www.w3.org/2000/svg" fill="none" aria-hidden="true" viewBox="0 0 48 48"><g id="bitcoin-Icon"><g id="Group"><path id="Vector" fill="url(#paint0_linear_94_17202)" d="M41.4616 28.3529C39.0565 38.001 29.2817 43.8657 19.6474 41.4608C9.99913 39.0558 4.13421 29.2811 6.53925 19.6471C8.94429 9.99904 18.7051 4.13425 28.3534 6.53924C37.9876 8.93016 43.8666 18.7048 41.4616 28.3529Z"/><path id="Vector_2" fill="white" d="M32.5706 21.757C32.9222 19.3664 31.1081 18.0726 28.605 17.2148L29.4206 13.9664L27.4519 13.4742L26.6644 16.6383C26.144 16.5117 25.6097 16.3851 25.0753 16.2726L25.8628 13.0945L23.894 12.6023L23.0925 15.8367C22.6565 15.7383 22.2347 15.6398 21.8269 15.5414V15.5273L19.0987 14.8523L18.5784 16.9617C18.5784 16.9617 20.0409 17.2992 20.0128 17.3133C20.8144 17.5101 20.955 18.0445 20.9269 18.4664L19.9987 22.1648C20.055 22.1789 20.1253 22.193 20.2097 22.2351C20.1394 22.2211 20.069 22.207 19.9987 22.1789L18.705 27.3539C18.6065 27.593 18.3534 27.9586 17.805 27.818C17.819 27.8461 16.3706 27.4664 16.3706 27.4664L15.3862 29.7305L17.9597 30.3773C18.4378 30.5039 18.9019 30.6164 19.3659 30.743L18.5503 34.0195L20.519 34.5117L21.3347 31.2633C21.869 31.4039 22.4034 31.5445 22.9097 31.6711L22.1081 34.9055L24.0769 35.3976L24.8925 32.1211C28.2675 32.7539 30.7987 32.5008 31.8534 29.4492C32.7112 27.0023 31.8112 25.582 30.0394 24.6539C31.3472 24.3586 32.3175 23.5008 32.5706 21.757ZM28.0565 28.0851C27.4519 30.532 23.3175 29.2101 21.9815 28.8726L23.0644 24.5273C24.4003 24.8648 28.7034 25.5258 28.0565 28.0851ZM28.6753 21.7148C28.1128 23.9508 24.6815 22.8117 23.5706 22.5305L24.555 18.593C25.6659 18.8742 29.2519 19.3945 28.6753 21.7148Z"/></g></g><defs><linearGradient id="paint0_linear_94_17202" x1="23.9904" x2="23.9904" y1="5.99152" y2="41.9964" gradientUnits="userSpaceOnUse"><stop stop-color="#F9AA4B"/><stop offset="1" stop-color="#F7931A"/></linearGradient></defs></svg>

<svg xmlns="http://www.w3.org/2000/svg" fill="none" aria-hidden="true" viewBox="0 0 48 48"><path fill="url(#a)" d="M41.462 28.353C39.056 38 29.282 43.866 19.647 41.46 10 39.056 4.134 29.28 6.54 19.647 8.944 10 18.705 4.134 28.353 6.54c9.635 2.391 15.514 12.166 13.109 21.814Z"/><path fill="#fff" d="M32.57 21.757c.352-2.39-1.462-3.684-3.965-4.542l.816-3.249-1.97-.492-.787 3.164a52.508 52.508 0 0 0-1.589-.365l.788-3.178-1.969-.493-.801 3.235a87.839 87.839 0 0 1-1.266-.296v-.014l-2.728-.675-.52 2.11s1.462.337 1.434.351c.801.197.942.732.914 1.153l-.928 3.699c.056.014.126.028.21.07a1.169 1.169 0 0 1-.21-.056l-1.294 5.175c-.098.239-.352.605-.9.464.014.028-1.434-.352-1.434-.352l-.985 2.264 2.574.647c.478.127.942.24 1.406.366l-.816 3.277 1.969.492.816-3.249c.534.14 1.068.281 1.575.408l-.802 3.235 1.969.492.815-3.277c3.375.633 5.907.38 6.961-2.672.858-2.447-.042-3.867-1.814-4.795 1.308-.295 2.279-1.153 2.532-2.897Zm-4.514 6.328c-.604 2.447-4.739 1.125-6.075.788l1.083-4.346c1.336.338 5.64.999 4.992 3.558Zm.62-6.37c-.563 2.236-3.994 1.097-5.105.816l.984-3.938c1.11.281 4.697.802 4.12 3.122Z"/><defs><linearGradient id="a" x1="23.99" x2="23.99" y1="5.992" y2="41.996" gradientUnits="userSpaceOnUse"><stop stop-color="#F9AA4B"/><stop offset="1" stop-color="#F7931A"/></linearGradient></defs></svg>
